X:1
T:Fleet Street, 66.66.88
T:Fleet Street, 66.66.88
T:Sabbath Hymn and Tune Book, 1859
T:Public Domain Courtesy of the Cyber Hymnal™
C:Sabbath Hymn and Tune Book, 1859
Z:Public Domain
Z:Courtesy of the Cyber Hymnal™
%%score ( 1 2 ) ( 3 4 )
L:1/8
M:none
K:G
V:1 treble 
V:2 treble 
V:3 bass 
V:4 bass 
V:1
 D4 | [DG]2 [DA]2 [DB]2 [Ec]2 | [Fd]4 G4 | [Ec]2 [DA]2 [DB]2 [DG]2 | [DA]4 D4 | %5
 [DG]2 [DA]2 [DB]2 [Ec]2 | [Fd]4 G4 | [Ec]2 [Ec]2 [DB]2 [CA]2 | [B,G]4 (B2 c2) | [Gd]4 [Ge]4 | %10
 [Gd]4 [DB]4 | (A2 B2) (c2 B2) | [DA]4 (B2 c2) | [Gd]4 [Ge]4 | [Gd]4 ([DG]2 [EA]2) | [DB]4 [CA]4 | %16
 [B,G]4 |] %17
V:2
 D4 | x8 | x4 G4 | x8 | x4 D4 | x8 | x4 G4 | x8 | x4 G4 | x8 | x8 | D4 D4 | x4 D4 | x8 | x8 | x8 | %16
 x4 |] %17
V:3
 D,4 | [B,,D,]2 [D,F,]2 G,2 [E,G,]2 | [D,A,]4 [E,G,]4 | [C,G,]2 [D,F,]2 G,2 [B,,G,]2 | %4
 [D,F,]4 [D,F,]4 | [B,,G,]2 [D,F,]2 G,2 [E,G,]2 | [D,A,]4 [E,G,]4 | %7
 [C,G,]2 [C,G,]2 [D,G,]2 [D,F,]2 | [G,,G,]4 (G,2 A,2) | [G,B,]4 [G,C]4 | [G,B,]4 [G,,G,]4 | %11
 ([D,F,]2 G,2) ([F,A,]2 G,2) | [D,F,]4 (G,2 A,2) | [G,B,]4 [G,C]4 | [G,B,]4 G,4 | [D,G,]4 [D,F,]4 | %16
 [G,,G,]4 |] %17
V:4
 D,4 | x4 G,2 x2 | x8 | x4 G,2 x2 | x8 | x4 G,2 x2 | x8 | x8 | x4 G,4 | x8 | x8 | x2 G,2 G,2 x2 | %12
 x4 G,4 | x8 | x4 (B,,2 C,2) | x8 | x4 |] %17

